static/img/kroki/04bda3ce4e3c3ac3ffb9722639b5beaf.svg

<?xml version="1.0" encoding="us-ascii" standalone="no"?><svg xmlns="http://www.w3.org/2000/svg" xmlns:xlink="http://www.w3.org/1999/xlink" contentStyleType="text/css" height="374px" preserveAspectRatio="none" style="width:371px;height:374px;" version="1.1" viewBox="0 0 371 374" width="371px" zoomAndPan="magnify"><defs/><g><!--class account--><g id="elem_account"><rect codeLine="23" fill="#3D176E" height="39.7891" id="account" rx="2.5" ry="2.5" style="stroke:#000D19;stroke-width:0.5;" width="107" x="7" y="167.79"/><ellipse cx="22" cy="187.6845" fill="#ADD1B2" rx="11" ry="11" style="stroke:#181818;stroke-width:1.0;"/><path d="M24.9688,193.3252 Q24.3906,193.622 23.75,193.7627 Q23.1094,193.9189 22.4063,193.9189 Q19.9063,193.9189 18.5781,192.2783 Q17.2656,190.622 17.2656,187.497 Q17.2656,184.372 18.5781,182.7158 Q19.9063,181.0595 22.4063,181.0595 Q23.1094,181.0595 23.75,181.2158 Q24.4063,181.372 24.9688,181.6689 L24.9688,184.3877 Q24.3438,183.8095 23.75,183.5439 Q23.1563,183.2627 22.5313,183.2627 Q21.1875,183.2627 20.5,184.3408 Q19.8125,185.4033 19.8125,187.497 Q19.8125,189.5908 20.5,190.6689 Q21.1875,191.7314 22.5313,191.7314 Q23.1563,191.7314 23.75,191.4658 Q24.3438,191.1845 24.9688,190.6064 L24.9688,193.3252 Z " fill="#000000"/><text fill="#D9B8FF" font-family="Helvetica" font-size="17" lengthAdjust="spacing" textLength="65" x="41" y="193.5698">account</text></g><!--class kubernetes_cluster--><g id="elem_kubernetes_cluster"><rect codeLine="26" fill="#3D176E" height="39.7891" id="kubernetes_cluster" rx="2.5" ry="2.5" style="stroke:#000D19;stroke-width:0.5;" width="201" x="57" y="328.58"/><ellipse cx="72" cy="348.4745" fill="#ADD1B2" rx="11" ry="11" style="stroke:#181818;stroke-width:1.0;"/><path d="M74.9688,354.1152 Q74.3906,354.412 73.75,354.5527 Q73.1094,354.7089 72.4063,354.7089 Q69.9063,354.7089 68.5781,353.0683 Q67.2656,351.412 67.2656,348.287 Q67.2656,345.162 68.5781,343.5058 Q69.9063,341.8495 72.4063,341.8495 Q73.1094,341.8495 73.75,342.0058 Q74.4063,342.162 74.9688,342.4589 L74.9688,345.1777 Q74.3438,344.5995 73.75,344.3339 Q73.1563,344.0527 72.5313,344.0527 Q71.1875,344.0527 70.5,345.1308 Q69.8125,346.1933 69.8125,348.287 Q69.8125,350.3808 70.5,351.4589 Q71.1875,352.5214 72.5313,352.5214 Q73.1563,352.5214 73.75,352.2558 Q74.3438,351.9745 74.9688,351.3964 L74.9688,354.1152 Z " fill="#000000"/><text fill="#D9B8FF" font-family="Helvetica" font-size="17" lengthAdjust="spacing" textLength="159" x="91" y="354.3598">kubernetes_cluster</text></g><!--class kubernetes_resource--><g id="elem_kubernetes_resource"><rect codeLine="29" fill="#3D176E" height="39.7891" id="kubernetes_resource" rx="2.5" ry="2.5" style="stroke:#000D19;stroke-width:0.5;" width="216" x="148.5" y="167.79"/><ellipse cx="163.5" cy="187.6845" fill="#ADD1B2" rx="11" ry="11" style="stroke:#181818;stroke-width:1.0;"/><path d="M166.4688,193.3252 Q165.8906,193.622 165.25,193.7627 Q164.6094,193.9189 163.9063,193.9189 Q161.4063,193.9189 160.0781,192.2783 Q158.7656,190.622 158.7656,187.497 Q158.7656,184.372 160.0781,182.7158 Q161.4063,181.0595 163.9063,181.0595 Q164.6094,181.0595 165.25,181.2158 Q165.9063,181.372 166.4688,181.6689 L166.4688,184.3877 Q165.8438,183.8095 165.25,183.5439 Q164.6563,183.2627 164.0313,183.2627 Q162.6875,183.2627 162,184.3408 Q161.3125,185.4033 161.3125,187.497 Q161.3125,189.5908 162,190.6689 Q162.6875,191.7314 164.0313,191.7314 Q164.6563,191.7314 165.25,191.4658 Q165.8438,191.1845 166.4688,190.6064 L166.4688,193.3252 Z " fill="#000000"/><text fill="#D9B8FF" font-family="Helvetica" font-size="17" lengthAdjust="spacing" textLength="174" x="182.5" y="193.5698">kubernetes_resource</text></g><!--class resource--><g id="elem_resource"><rect codeLine="32" fill="#3D176E" height="39.7891" id="resource" rx="2.5" ry="2.5" style="stroke:#000D19;stroke-width:0.5;" width="113" x="101" y="7"/><ellipse cx="116" cy="26.8945" fill="#ADD1B2" rx="11" ry="11" style="stroke:#181818;stroke-width:1.0;"/><path d="M118.9688,32.5352 Q118.3906,32.832 117.75,32.9727 Q117.1094,33.1289 116.4063,33.1289 Q113.9063,33.1289 112.5781,31.4883 Q111.2656,29.832 111.2656,26.707 Q111.2656,23.582 112.5781,21.9258 Q113.9063,20.2695 116.4063,20.2695 Q117.1094,20.2695 117.75,20.4258 Q118.4063,20.582 118.9688,20.8789 L118.9688,23.5977 Q118.3438,23.0195 117.75,22.7539 Q117.1563,22.4727 116.5313,22.4727 Q115.1875,22.4727 114.5,23.5508 Q113.8125,24.6133 113.8125,26.707 Q113.8125,28.8008 114.5,29.8789 Q115.1875,30.9414 116.5313,30.9414 Q117.1563,30.9414 117.75,30.6758 Q118.3438,30.3945 118.9688,29.8164 L118.9688,32.5352 Z " fill="#000000"/><text fill="#D9B8FF" font-family="Helvetica" font-size="17" lengthAdjust="spacing" textLength="71" x="135" y="32.7798">resource</text></g><!--reverse link resource to account--><g id="link_resource_account"><path codeLine="35" d="M136.418,62.4116 C117.778,92.9316 90.91,136.9 72.24,167.46 " fill="none" id="resource-backto-account" style="stroke:#FFAF37;stroke-width:2.0;"/><polygon fill="none" points="145.8,47.05,131.2975,59.2842,141.5385,65.5389,145.8,47.05" style="stroke:#FFAF37;stroke-width:2.0;"/></g><!--reverse link account to kubernetes_cluster--><g id="link_account_kubernetes_cluster"><path codeLine="36" d="M81.582,223.2016 C100.222,253.7216 127.09,297.69 145.76,328.25 " fill="none" id="account-backto-kubernetes_cluster" style="stroke:#FFAF37;stroke-width:2.0;"/><polygon fill="none" points="72.2,207.84,76.4615,226.3289,86.7025,220.0742,72.2,207.84" style="stroke:#FFAF37;stroke-width:2.0;"/></g><!--reverse link kubernetes_resource to kubernetes_cluster--><g id="link_kubernetes_resource_kubernetes_cluster"><path codeLine="37" d="M235.0362,223.1141 C216.0062,253.6341 188.54,297.69 169.48,328.25 " fill="none" id="kubernetes_resource-backto-kubernetes_cluster" style="stroke:#FFAF37;stroke-width:2.0;"/><polygon fill="none" points="244.56,207.84,229.9449,219.9395,240.1276,226.2887,244.56,207.84" style="stroke:#FFAF37;stroke-width:2.0;"/></g><!--reverse link resource to kubernetes_resource--><g id="link_resource_kubernetes_resource"><path codeLine="38" d="M178.9638,62.3241 C197.9938,92.8441 225.46,136.9 244.52,167.46 " fill="none" id="resource-backto-kubernetes_resource" style="stroke:#FFAF37;stroke-width:2.0;"/><polygon fill="none" points="169.44,47.05,173.8724,65.4987,184.0551,59.1495,169.44,47.05" style="stroke:#FFAF37;stroke-width:2.0;"/></g><!--SRC=[XPBDRi8m48JlVWfBd96IeZOWzG98LNj1LUczSkmrM4diQBqfeZ_lNj8GP182HyzysfbTUMiKS2XAslC2YXJGCvyPMmeK1PyZkjtIvGxvI6kX9qdNV7AMRW8hKG1_XlmJo4ZH9TwtHcOMlETtWRKGCjkWgwngnXCAwmyMM0gePIwydnEXIIk2e8oQfLEjksHtw6YYukG1UfX31NX4eYXIyQoBt8owklU9M9ilu75uj9KZwDNiHVnJLrlMH52ojsZh3tPy5KePk-7tWVRMT48BUAQljqAvNKrhaVimnXCWEDgNiEnj1REfqib5-6K8Ph8-7HTI7ZpYtupz7gMiEdnU2mJ-G-PLFMh0HV2kGWcXVQwTNey_u_6u3MDjQAFsyzYba45uc6WTzWS0]--></g></svg>

<svg xmlns="http://www.w3.org/2000/svg" width="371" height="374" viewBox="0 0 371 374"><rect width="107" height="39.789" x="7" y="167.79" fill="#3D176E" rx="2.5" ry="2.5" style="stroke:#000d19;stroke-width:.5"/><circle cx="22" cy="187.685" r="11" fill="#ADD1B2" style="stroke:#181818;stroke-width:1"/><path d="M24.969 193.325q-.578.297-1.219.438-.64.156-1.344.156-2.5 0-3.828-1.64-1.312-1.657-1.312-4.782t1.312-4.781q1.328-1.656 3.828-1.656.703 0 1.344.156.656.156 1.219.453v2.719q-.625-.578-1.219-.844-.594-.281-1.219-.281-1.343 0-2.031 1.078-.687 1.062-.687 3.156t.687 3.172q.688 1.062 2.031 1.062.625 0 1.219-.265.594-.281 1.219-.86z"/><text x="41" y="193.57" fill="#D9B8FF" font-family="Helvetica" font-size="17" textLength="65">account</text><rect width="201" height="39.789" x="57" y="328.58" fill="#3D176E" rx="2.5" ry="2.5" style="stroke:#000d19;stroke-width:.5"/><circle cx="72" cy="348.474" r="11" fill="#ADD1B2" style="stroke:#181818;stroke-width:1"/><path d="M74.969 354.115q-.578.297-1.219.438-.64.156-1.344.156-2.5 0-3.828-1.64-1.312-1.657-1.312-4.782t1.312-4.781q1.328-1.656 3.828-1.656.703 0 1.344.156.656.156 1.219.453v2.719q-.625-.579-1.219-.844-.594-.281-1.219-.281-1.344 0-2.031 1.078-.687 1.062-.687 3.156t.687 3.172q.688 1.062 2.031 1.062.625 0 1.219-.265.594-.281 1.219-.86z"/><text x="91" y="354.36" fill="#D9B8FF" font-family="Helvetica" font-size="17" textLength="159">kubernetes_cluster</text><rect width="216" height="39.789" x="148.5" y="167.79" fill="#3D176E" rx="2.5" ry="2.5" style="stroke:#000d19;stroke-width:.5"/><circle cx="163.5" cy="187.685" r="11" fill="#ADD1B2" style="stroke:#181818;stroke-width:1"/><path d="M166.469 193.325q-.578.297-1.219.438-.64.156-1.344.156-2.5 0-3.828-1.64-1.312-1.657-1.312-4.782t1.312-4.781q1.328-1.656 3.828-1.656.703 0 1.344.156.656.156 1.219.453v2.719q-.625-.578-1.219-.844-.594-.281-1.219-.281-1.344 0-2.031 1.078-.687 1.062-.687 3.156t.687 3.172q.688 1.062 2.031 1.062.625 0 1.219-.265.594-.281 1.219-.86z"/><text x="182.5" y="193.57" fill="#D9B8FF" font-family="Helvetica" font-size="17" textLength="174">kubernetes_resource</text><rect width="113" height="39.789" x="101" y="7" fill="#3D176E" rx="2.5" ry="2.5" style="stroke:#000d19;stroke-width:.5"/><circle cx="116" cy="26.895" r="11" fill="#ADD1B2" style="stroke:#181818;stroke-width:1"/><path d="M118.969 32.535q-.578.297-1.219.438-.64.156-1.344.156-2.5 0-3.828-1.64-1.312-1.657-1.312-4.782t1.312-4.781q1.328-1.656 3.828-1.656.703 0 1.344.156.656.156 1.219.453v2.719q-.625-.578-1.219-.844-.594-.281-1.219-.281-1.344 0-2.031 1.078-.687 1.062-.687 3.156t.687 3.172q.688 1.062 2.031 1.062.625 0 1.219-.265.594-.281 1.219-.86z"/><text x="135" y="32.78" fill="#D9B8FF" font-family="Helvetica" font-size="17" textLength="71">resource</text><path fill="none" d="M136.418 62.412C117.778 92.932 90.91 136.9 72.24 167.46M145.8 47.05l-14.502 12.234 10.24 6.255zM81.582 223.202c18.64 30.52 45.508 74.488 64.178 105.048M72.2 207.84l4.261 18.489 10.242-6.255z" style="stroke:#ffaf37;stroke-width:2"/><g fill="none"><path d="M235.036 223.114c-19.03 30.52-46.496 74.576-65.556 105.136" style="stroke:#ffaf37;stroke-width:2"/><path d="m244.56 207.84-14.615 12.1 10.183 6.349z" style="stroke:#ffaf37;stroke-width:2"/></g><path fill="none" d="M178.964 62.324c19.03 30.52 46.496 74.576 65.556 105.136M169.44 47.05l4.432 18.449 10.183-6.35z" style="stroke:#ffaf37;stroke-width:2"/></svg>
